suite-common/icons/assets/icons/plus.svg

<svg xmlns="http://www.w3.org/2000/svg" xml:space="preserve" fill="none" viewBox="0 0 24 24">
  <path fill="#000" fill-rule="evenodd" d="M11.72 3.064a.8.8 0 0 0-.394.356c-.06.109-.067.475-.077 3.969l-.011 3.849-3.849.011c-3.494.01-3.86.017-3.969.077-.242.134-.42.419-.42.674s.178.54.42.674c.109.06.475.067 3.969.077l3.849.011.011 3.849c.01 3.494.017 3.86.077 3.969.134.242.419.42.674.42s.54-.178.674-.42c.06-.109.067-.475.077-3.969l.011-3.849 3.849-.011c3.494-.01 3.86-.017 3.969-.077.242-.134.42-.419.42-.674s-.178-.54-.42-.674c-.109-.06-.475-.067-3.969-.077l-3.849-.011-.011-3.849c-.01-3.494-.017-3.86-.077-3.969-.194-.352-.608-.506-.954-.356"/>
</svg>

<svg xmlns="http://www.w3.org/2000/svg" xml:space="preserve" fill="none" viewBox="0 0 24 24"><path d="M11.720 3.064 C 11.550 3.138,11.414 3.260,11.326 3.420 C 11.266 3.529,11.259 3.895,11.249 7.389 L 11.238 11.238 7.389 11.249 C 3.895 11.259,3.529 11.266,3.420 11.326 C 3.178 11.460,3.000 11.745,3.000 12.000 C 3.000 12.255,3.178 12.540,3.420 12.674 C 3.529 12.734,3.895 12.741,7.389 12.751 L 11.238 12.762 11.249 16.611 C 11.259 20.105,11.266 20.471,11.326 20.580 C 11.460 20.822,11.745 21.000,12.000 21.000 C 12.255 21.000,12.540 20.822,12.674 20.580 C 12.734 20.471,12.741 20.105,12.751 16.611 L 12.762 12.762 16.611 12.751 C 20.105 12.741,20.471 12.734,20.580 12.674 C 20.822 12.540,21.000 12.255,21.000 12.000 C 21.000 11.745,20.822 11.460,20.580 11.326 C 20.471 11.266,20.105 11.259,16.611 11.249 L 12.762 11.238 12.751 7.389 C 12.741 3.895,12.734 3.529,12.674 3.420 C 12.480 3.068,12.066 2.914,11.720 3.064 " stroke="none" fill-rule="evenodd" fill="black"></path></svg>
